modules/feathericon/icons/columns.svg

<?xml version="1.0" encoding="UTF-8"?>
<svg width="24px" height="24px" viewBox="0 0 24 24" version="1.1" xmlns="http://www.w3.org/2000/svg" xmlns:xlink="http://www.w3.org/1999/xlink">
    <!-- Generator: sketchtool 52.2 (67145) - http://www.bohemiancoding.com/sketch -->
    <title>columns</title>
    <desc>Created with sketchtool.</desc>
    <g id="text-edit" stroke="none" stroke-width="1" fill="none" fill-rule="evenodd">
        <g id="columns" fill="#000000" fill-rule="nonzero">
            <path d="M4,4 L20,4 C21.1045695,4 22,4.8954305 22,6 L22,18 C22,19.1045695 21.1045695,20 20,20 L4,20 C2.8954305,20 2,19.1045695 2,18 L2,6 C2,4.8954305 2.8954305,4 4,4 Z M16,6 L16,18 L20,18 L20,6 L16,6 Z M4,6 L4,18 L8,18 L8,6 L4,6 Z M10,6 L10,18 L14,18 L14,6 L10,6 Z" id="Shape"></path>
        </g>
    </g>
</svg>

<svg width="24" height="24" viewBox="0 0 24 24" xmlns="http://www.w3.org/2000/svg"><path d="M4 4h16a2 2 0 0 1 2 2v12a2 2 0 0 1-2 2H4a2 2 0 0 1-2-2V6a2 2 0 0 1 2-2zm12 2v12h4V6h-4zM4 6v12h4V6H4zm6 0v12h4V6h-4z" fill="#000" fill-rule="nonzero"/></svg>
